svgs/thin/tablet.svg

<svg xmlns="http://www.w3.org/2000/svg" viewBox="0 0 448 512"><!-- Font Awesome Pro 6.0.0-alpha2 by @fontawesome - https://fontawesome.com License - https://fontawesome.com/license (Commercial License) --><path d="M48 512H400C426.5 512 448 490.5 448 464V48C448 21.5 426.5 0 400 0H48C21.5 0 0 21.5 0 48V464C0 490.5 21.5 512 48 512ZM16 48C16 30.355 30.355 16 48 16H400C417.645 16 432 30.355 432 48V464C432 481.645 417.645 496 400 496H48C30.355 496 16 481.645 16 464V48ZM176 456H272C276.406 456 280 452.422 280 448S276.406 440 272 440H176C171.594 440 168 443.578 168 448S171.594 456 176 456Z"/></svg>

<svg xmlns="http://www.w3.org/2000/svg" viewBox="0 0 448 512"><!--! Font Awesome Pro 6.3.0 by @fontawesome - https://fontawesome.com License - https://fontawesome.com/license (Commercial License) Copyright 2023 Fonticons, Inc. --><path d="M48 512h352c26.5 0 48-21.5 48-48v-416C448 21.5 426.5 0 400 0h-352C21.5 0 0 21.5 0 48v416C0 490.5 21.5 512 48 512zM16 48c0-17.64 14.36-32 32-32h352c17.64 0 32 14.36 32 32v416c0 17.64-14.36 32-32 32h-352c-17.64 0-32-14.36-32-32V48zM176 456h96c4.406 0 8-3.578 8-8s-3.594-8-8-8h-96c-4.406 0-8 3.578-8 8S171.6 456 176 456z"/></svg>
